X: 2197
T: Şu Yalta`dan Taş Yükledim
C: (Anonim)
O: Turkey
F: http://compmusic.upf.edu/node/140
N: hicaz--turku--sofyan--su_yaltadan--kirim
N: makam= hicaz
N: form= turku
N: usul= sofyan = 4/4
M: 4/4
L: 1/16
K: C _7/8B ^f ^c 
Q: 1/4=96
%%MIDI tuningsystem comma53
z4 ^3/4c2d2 e4 a4  | e2d2 d2^3/4c2 c2B2 A4  | \
w:   |   | 
e2=f4e2 e2d2 ^3/4c2d2  | e16  | z4 ^3/4c2d2 e4 a4  | 
w:   |   |   | 
e2d2 d2^3/4c2 c2B2 A4  | ^3/4c2d4c2 c2B2 B2A2  | A16  | \
w:   |   |   | 
z4 ^3/4c2d2 e4 a4  | e2d2 d2^3/4c2 c2B2 A4  | 
w:   |   | 
e2=f4e2 e2d2 ^3/4c2d2  | e16  | z4 ^3/4c2d2 e4 a4  | \
w:   |   |   | 
e2d2 d2^3/4c2 c2B2 A4  | ^3/4c2d4c2 c2B2 B2A2  | 
w:   |   | 
A16  | z4 ^3/4c2d2 e4 a4  | e2d2 d2^3/4c2 c2B2 A4  | \
w:   |  Şu  Yal ta dan   |  taş  *  yük *  le *  dim   | 
e2=f4e2 e2d2 ^3/4c2d2  | e16  | 
w:  ge mim  *  dol *  ma  |  dı    | 
z4 ^3/4c2d2 e4 a4  | e2d2 d2^3/4c2 c2B2 A4  | \
w:  Şu  Yal ta dan   |  taş  *  yük *  le *  dim   | 
e2=f4e2 e2d2 ^3/4c2d2  | e16  | z4 ^3/4c2d2 e4 a4  | 
w:  ge mim  *  dol *  ma  |  dı    |  Şu  genç lik te   | 
e2d2 d2^3/4c2 c2B2 A4  | ^3/4c2d4c2 c2B2 B2A2  | A16  | \
w:  bir  *  yâr  *  sev *  dim   |  o  da  *  ol *  ma  |  dı    | 
z4 ^3/4c2d2 e4 a4  | e2d2 d2^3/4c2 c2B2 A4  | 
w:  Şu  genç lik te   |  bir  *  yâr  *  sev *  dim   | 
^3/4c2d4c2 c2B2 B2A2  | A16  | g4 (3^3/4f2e2f2 g4 (3f2e2f2  | \
w:  o  da  *  ol *  ma  |  dı    |  Gel  *  *  *  gel   | 
g2a4^3/4f2 e8  | e2=f4e2 e2d2 ^3/4c2d2  | 
w:  gel_ a *  man   |  gö re *  yim  *  se  | 
e16  | g4 (3^3/4f2e2f2 g4 (3f2e2f2  | \
w:  ni    |  Gel  *  *  *  gel   | 
g2a4^3/4f2 e8  | e2=f4e2 e2d2 ^3/4c2d2  | e16  | 
w:  gel_ a *  man   |  gö re *  yim  *  se  |  ni    | 
z4 ^3/4c2d2 e4 a4  | e2d2 d2^3/4c2 c2B2 A4  | \
w:  E ğer  kıs met   |  o *  lur  *  i *  se   | 
^3/4c2d4c2 c2B2 B2A2  | A16  | z4 ^3/4c2d2 e4 a4  | 
w:  a la *  yım  *  se  |  ni    |  E ğer  kıs met   | 
e2d2 d2^3/4c2 c2B2 A4  | ^3/4c2d4c2 c2B2 B2A2  | A16  | z12  | \
w:  o *  lur  *  i *  se   |  a la *  yım  *  se  |  ni    |  | 
A2e2d2 =f2e d^3/4cB  | 
w:  Ke ten  göm lek   | 
A2^3/4c2e2 d2^3/4f2a2  | aaa2a2 =f2e d^3/4cB  | \
w:  e ni  *  dar   |  be ni  bı ra kıp   | 
A2^3/4c2e2 d6  | A2e2d2 =f2e d^3/4cB  | 
w:  gi den  *  yâr    |  Ke ten  göm lek   | 
A2^3/4c2e2 d2^3/4f2a2  | aaa2a2 =f2e d^3/4cB  | \
w:  e ni  *  dar   |  be ni  bı ra kıp   | 
A2^3/4c2e2 d6  | g4g2 g2=f ed2  | 
w:  gi den  *  yâr    |  Sen  ba na  *  *  kıy  | 
a4a2 =f2e d^3/4cB  | A2^3/4c2e2 d2c BA2  | \
w:  maz  i din  *  *  el  |  bet  sa na  bir  *  *  öğ  | 
G2A2B2 A6  | g4g2 g2=f ed2  | 
w:  re ten  *  var    |  Sen  ba na  *  *  kıy  | 
a4a2 =f2e d^3/4cB  | A2^3/4c2e2 d2c BA2  | \
w:  maz  i din  *  *  el  |  bet  sa na  bir  *  *  öğ  | 
G2A2B2 A6  | A2e2d2 =f2e d^3/4cB  | 
w:  re ten  *  var    |  Al tın  yü zük   | 
A2^3/4c2e2 d2^3/4f2a2  | aaa2a2 =f2e d^3/4cB  | \
w:  ke sil *  mez   |  der dim_ ar *  tar   | 
A2^3/4c2e2 d6  | A2e2d2 =f2e d^3/4cB  | 
w:  ek sil *  mez    |  Al tın  yü zük   | 
A2^3/4c2e2 d2^3/4f2a2  | aaa2a2 =f2e d^3/4cB  | \
w:  ke sil *  mez   |  der dim_ ar *  tar   | 
A2^3/4c2e2 d6  | g4g2 g2=f ed2  | 
w:  ek sil *  mez    |  Gün de  yüz *  *  bin   | 
a4a2 =f2e d^3/4cB  | A2^3/4c2e2 d2c BA2  | \
w:  ta ne  gör *  *  sem   |  hiç bi ri  sa *  *  na   | 
G2A2B2 A6  | g4g2 g2=f ed2  | 
w:  ben *  ze mez    |  Gün de  yüz *  *  bin   | 
a4a2 =f2e d^3/4cB  | A2^3/4c2e2 d2c BA2  | \
w:  ta ne  gör *  *  sem   |  hiç bi ri  sa *  *  na   | 
G2A2B2 A6  | z16  | g4 (3^3/4f2e2f2 g4 (3f2e2f2  | 
w:  ben *  ze mez    |  |  Gel  *  *  *  gel   | 
g2a4^3/4f2 e8  | e2=f4e2 e2d2 ^3/4c2d2  | e16  | \
w:  gel_ a *  man   |  gö re *  yim  *  se  |  ni    | 
g4 (3^3/4f2e2f2 g4 (3f2e2f2  | g2a4^3/4f2 e8  | 
w:  Gel  *  *  *  gel   |  gel_ a *  man   | 
e2=f4e2 e2d2 ^3/4c2d2  | e16  | z4 ^3/4c2d2 e4 a4  | \
w:  gö re *  yim  *  se  |  ni    |  E ğer  kıs met   | 
e2d2 d2^3/4c2 c2B2 A4  | ^3/4c2d4c2 c2B2 B2A2  | 
w:  o *  lur  *  i *  se   |  a la *  yım  *  se  | 
A16  | z4 ^3/4c2d2 e4 a4  | e2d2 d2^3/4c2 c2B2 A4  | \
w:  ni    |  E ğer  kıs met   |  o *  lur  *  i *  se   | 
^3/4c2d4c2 c2B2 B2A2  | A16  | 
w:  a la *  yım  *  se  |  ni    | 
|


